X:1
T:Title
%%score 1 2 3 4
L:1/8
M:4/2
K:C
V:1 treble nm="Part_1"
V:2 treble-8 nm="Part_2"
V:3 treble-8 nm="Part_3"
V:4 bass nm="Part_4"
V:1
 z16 | z16 | z16 | z16 | G8 A4 c4- | c4 B4 c8 | G8 A8 | c8 c8 | z4 B4 c8 | d8 G4 c4 | %10
 A4 d6 c2 B2 A2 | G8 A4 F4- | F4 E2 D2 E2 D2 G4- | G4 ^F4 G8 | z8 z4 G4- | G2 F2 E2 D2 E8 | D16 || %17
 A8 A8 | e12 d4 | c6 B2 A8 | G8 B8 | A4 c8 B2 A2 | G8 z8 | G8 A8 | G4 G4 A4 B4 | G8 z4 F4 | %26
 G8 F4 D4 | E8 D8 | A8 B8 | c8 d8 | e8 d4 d4- | d4 c4 d8 | c4 B8 A4 | B16- | B16 | B16 || G8 A8 | %37
 c8 B8 | A8 G8 | F4 A6 G2 F2 E2 | F8 G8 | z4 D4 E4 A4- | A4 G4 A4 c4- | c4 B4 A8 | z4 G4 A8 | %45
 G8 z8 | G16 || z16 | A16 | A8 A8 | e8 z4 e4- | e4 d2 c2 c4 B2 A2 | G4 A8 ^G4 | A8 z8 | %54
 z4 A4 B4 c4 | F6 G2 A2 _B2 A4- | A2 G2 F2 E2 F8 | E8 z4 E4- | E2 F2 G4 C4 c4- | c4 B2 A2 B8 | %60
 c16 | z4 c4 B4 d4 | c4 B8 A4 | B16- | B16 || z16 | G16 | G8 A8 | c8 G8 | A16 | F8 z8 | F8 G8 | %72
 A8 G8 | A8 F8 | G16 | E16- | E16 | E16 |] %78
V:2
 z16 | G8 A4 c4- | c4 B4 (3:2:2c8 d4 | e16 | z4 e8 d2 c2 | d8 c4 e4- | e2 d2 c2 B2 A6 G2 | A8 G8 | %8
 z4 d4 e4 c4 | f8 z4 e4 | f8 g4 e4- | e2 d2 c2 B2 (A8 | d8) z8 | d8 B4 c4 | A8 G8- | G16 | G16 || %17
 A8 A8 | B8 B8 | A4 c8 B2 A2 | B8 z4 e4 | c8 A8 | B8 z4 B4 | c4 B4 c4 d4 | B8 z4 B4 | %25
 c4 B2 c2 B4 A4- | A4 G4 A8- | A8 z8 | z4 A4 d8 | c8 f8 | e4 A8 G4 | A6 c2 B4 A4 | c4 d4 c4 f4 | %33
 d4 g8 f2 e2 | d4 e8 d4 | e16 || z16 | c8 d8 | f8 e8 | d8 c8 | d8 e4 g4- | g4 f4 e4 d2 c2 | %42
 B6 c2 A8 | G8 z4 A4 | B4 e8 d4 | e4 g4 f8 | e16 || A16 | A8 (A8 | e8) e8 | z4 e8 d2 c2 | %51
 c8 A4 c4- | c4 B2 A2 B8 | A4 d4 c4 e4- | e4 d4 e8 | A8 z4 A4 | d8 z4 d4 | A8 A4 c4- | %58
 c2 d2 e2 f2 g4 e4- | e4 d2 c2 d8 | c4 A4 c6 d2 | e6 f2 g8 | z4 g4 e4 f4 | e4 g8 f2 e2 | e16 || %65
 d16 | d8 e8 | g8 d8 | e16 | c16 | z8 c8 | d8 e8 | d8 e8 | c8 d8 | B16 | z8 z4 G4 | A4 B4 c8 | %77
 B16 |] %78
V:3
 z16 | z16 | z16 | G8 A8 | c8 c8 | G8 A8 | c8 c8 | z16 | z16 | B8 c8 | d8 B8 | z8 d8 | B8 c8 | %13
 A8 G8 | A8 B8 | c16 | B16 || z16 | z16 | A8 A8 | e8 e8 | A8 A8 | e8 e8 | e8 f8 | e8 z4 d4 | %25
 e8 d8 | z4 c4 d8 | (c8 B8) | A4 A8 G4 | A8 z8 | c8 d8 | e8 d8 | A4 B4 c8 | B16- | B16 | B16 || %36
 z16 | z8 G8 | A8 c8 | A8 z8 | A8 G8 | B8 z8 | z8 c8 | d8 c8 | B4 B8 A4 | B8 z8 | B16 || z16 | %48
 z16 | A16 | A8 (A8 | e8) e8 | z8 e8 | f8 e2 d2 c2 B2 | A4 d8 c4 | d16 | z8 A8 | c16 | G16 | %59
 z8 G8 | A4 c8 B2 A2 | G8 d6 c2 | A4 B4 c8 | B16- | B16 || G12 A4 | B8 c8 | B4 G8 F4 | G4 A4 B8 | %69
 A16 | z8 G8 | A8 B8 | A8 B8 | c8 A8 | G16- | G8 E8 | E16- | E16 |] %78
V:4
 G,,8 A,,8 | C,8 C,8 | G,,8 A,,8 | C,8 C,8 | z16 | z8 z4 C,4- | C,2 D,2 E,4 F,8- | %7
 F,4 E,2 D,2 E,6 F,2 | G,8 E,4 F,4 | D,8 C,8 | z8 G,8 | E,8 F,8 | D,8 C,8 | D,8 E,8 | F,8 E,8 | %15
 C,16 | G,,16 || z16 | E,8 E,8 | F,8 F,8 | E,16 | F,8 F,8 | E,16 | z4 E,8 D,4 | E,8 F,4 G,4 | %25
 E,4 C,4 (D,8 | E,8) D,8 | z4 A,,4 B,,4 D,4- | D,4 C,4 B,,8 | A,,8 z8 | A,,8 B,,8 | A,,8 D,8 | %32
 z4 D,4 E,4 F,4 | G,4 E,8 D,2 C,2 | B,,4 G,,4 G,8 | E,16 || z16 | z16 | z8 C,8 | D,8 F,8 | D,8 z8 | %41
 D,8 C,8 | E,8 z8 | z8 F,8 | G,8 F,8 | E,4 E,8 D,4 | E,16 || z16 | z16 | z16 | A,,16 | A,,8 (A,,8 | %52
 E,8) E,8 | z8 E,8 | F,8 E,8 | D,16 | D,16 | z8 A,,8 | C,16 | G,,16 | z8 A,,8 | C,8 G,,8 | %62
 A,,4 G,,4 A,,8 | E,16- | E,16 || G,16 | G,8 C,6 D,2 | E,6 F,2 D,8 | C,4 A,,4 E,8 | A,,8 z4 A,,4 | %70
 D,8 E,8 | D,8 G,8 | F,8 E,8 | A,,8 D,8 | G,,16 | C,12 B,,4 | A,,4 G,,4 A,,8 | E,,16 |] %78

